include/images/vacuum.svg

<?xml version="1.0" encoding="UTF-8" standalone="no"?>
<!DOCTYPE svg PUBLIC "-//W3C//DTD SVG 1.1//EN" "http://www.w3.org/Graphics/SVG/1.1/DTD/svg11.dtd">
<svg xmlns="http://www.w3.org/2000/svg" version="1.1" viewBox="0 0 32 32">
<g stroke-width="2.00" fill="none" stroke-linecap="butt">
<path stroke="#a7a7a6" vector-effect="non-scaling-stroke" d="
  M 9.79 26.75
  L 19.07 17.58
  A 2.44 2.44 -61.5 0 1 21.25 16.93
  C 26.51 17.99 28.25 13.73 28.47 9.04
  C 28.52 8.04 27.68 8.03 27.20 8.72
  C 25.38 11.27 22.62 13.29 19.83 10.58"
/>
<path stroke="#bfc0bf" vector-effect="non-scaling-stroke" d="
  M 19.83 10.58
  Q 20.10 7.30 23.00 4.77
  Q 23.60 4.25 23.03 4.16
  Q 18.05 3.29 15.44 7.16
  A 1.95 1.22 70.7 0 0 15.20 8.22
  Q 15.27 9.66 15.07 11.09
  C 14.62 14.20 7.64 19.98 5.22 22.21
  C 1.92 25.26 6.89 29.83 9.79 26.75"
/>
<path stroke="#e6e6e6" vector-effect="non-scaling-stroke" d="
  M 19.83 10.58
  L 9.75 22.29"
/>
<path stroke="#d2d2d1" vector-effect="non-scaling-stroke" d="
  M 9.75 22.29
  Q 5.88 20.94 6.03 24.45
  A 1.21 1.16 -71.1 0 0 6.42 25.29
  Q 7.75 26.47 9.71 26.25"
/>
<path stroke="#e6e6e6" vector-effect="non-scaling-stroke" d="
  M 9.71 26.25
  L 9.79 26.75"
/>
<path stroke="#bab9b9" vector-effect="non-scaling-stroke" d="
  M 9.71 26.25
  Q 10.30 24.29 9.75 22.29"
/>
</g>
<path fill="#80817f" d="
  M 22.24 9.77
  Q 22.24 11.10 23.30 10.05
  L 26.43 6.92
  Q 28.19 5.16 28.77 7.51
  C 29.88 12.02 29.18 19.25 22.47 18.00
  Q 20.71 17.67 19.48 18.96
  C 16.56 22.00 6.21 36.36 2.73 25.00
  Q 1.93 22.39 4.45 20.47
  Q 9.63 16.52 13.81 11.55
  A 1.36 1.21 62.2 0 0 14.07 10.49
  Q 13.51 7.24 15.23 4.50
  A 1.64 1.52 -82.2 0 1 16.00 3.87
  C 18.25 3.04 24.70 1.94 25.83 4.27
  A 0.66 0.56 56.4 0 1 25.74 5.00
  L 22.55 8.04
  A 1.42 0.79 79.1 0 0 22.24 8.99
  L 22.24 9.77
  Z
  M 9.79 26.75
  L 19.07 17.58
  A 2.44 2.44 -61.5 0 1 21.25 16.93
  C 26.51 17.99 28.25 13.73 28.47 9.04
  C 28.52 8.04 27.68 8.03 27.20 8.72
  C 25.38 11.27 22.62 13.29 19.83 10.58
  Q 20.10 7.30 23.00 4.77
  Q 23.60 4.25 23.03 4.16
  Q 18.05 3.29 15.44 7.16
  A 1.95 1.22 70.7 0 0 15.20 8.22
  Q 15.27 9.66 15.07 11.09
  C 14.62 14.20 7.64 19.98 5.22 22.21
  C 1.92 25.26 6.89 29.83 9.79 26.75
  Z"
/>
<path fill="#fefefe" d="
  M 19.83 10.58
  L 9.75 22.29
  Q 5.88 20.94 6.03 24.45
  A 1.21 1.16 -71.1 0 0 6.42 25.29
  Q 7.75 26.47 9.71 26.25
  L 9.79 26.75
  C 6.89 29.83 1.92 25.26 5.22 22.21
  C 7.64 19.98 14.62 14.20 15.07 11.09
  Q 15.27 9.66 15.20 8.22
  A 1.95 1.22 70.7 0 1 15.44 7.16
  Q 18.05 3.29 23.03 4.16
  Q 23.60 4.25 23.00 4.77
  Q 20.10 7.30 19.83 10.58
  Z"
/>
<path fill="#cdcdcd" d="
  M 9.79 26.75
  L 9.71 26.25
  Q 10.30 24.29 9.75 22.29
  L 19.83 10.58
  C 22.62 13.29 25.38 11.27 27.20 8.72
  C 27.68 8.03 28.52 8.04 28.47 9.04
  C 28.25 13.73 26.51 17.99 21.25 16.93
  A 2.44 2.44 -61.5 0 0 19.07 17.58
  L 9.79 26.75
  Z"
/>
<path fill="#a6a5a4" d="
  M 9.75 22.29
  Q 10.30 24.29 9.71 26.25
  Q 7.75 26.47 6.42 25.29
  A 1.21 1.16 -71.1 0 1 6.03 24.45
  Q 5.88 20.94 9.75 22.29
  Z"
/>
</svg>

<svg xmlns="http://www.w3.org/2000/svg" viewBox="0 0 32 32"><g fill="none" stroke-width="2"><path stroke="#a7a7a6" d="m9.8 26.8 9.3-9.2a2 2-61.5 0 1 2.1-.7c5.3 1 7-3.2 7.3-7.9 0-1-.8-1-1.3-.3-1.8 2.6-4.6 4.6-7.4 1.9"/><path stroke="#bfc0bf" d="M19.8 10.6q.3-3.3 3.2-5.8.6-.5 0-.6-5-1-7.6 3a2 1.2 70.7 0 0-.2 1l-.1 2.9c-.5 3.1-7.5 8.9-9.9 11.1-3.3 3 1.7 7.6 4.6 4.6"/><path stroke="#d2d2d1" d="M9.8 22.3q-4-1.4-3.8 2.1a1 1-71.1 0 0 .4.9q1.3 1.2 3.3 1"/><path stroke="#e6e6e6" d="M9.7 26.3v.4"/><path stroke="#bab9b9" d="M9.7 26.3q.6-2 0-4"/></g><path fill="#80817f" d="M22.2 9.8q0 1.3 1.1.2l3.1-3q1.8-1.8 2.4.5c1 4.5.4 11.8-6.3 10.5q-1.8-.3-3 1c-3 3-13.3 17.4-16.8 6q-.8-2.6 1.7-4.5 5.2-4 9.4-9a1.4 1.2 62.2 0 0 .3-1q-.6-3.3 1.1-6a1.6 1.5-82.2 0 1 .8-.6c2.2-.9 8.7-2 9.8.4V5l-3.3 3a1.4.8 79.1 0 0-.3 1zm-12.4 17 9.3-9.2a2 2-61.5 0 1 2.1-.7c5.3 1 7-3.2 7.3-7.9 0-1-.8-1-1.3-.3-1.8 2.6-4.6 4.6-7.4 1.9q.3-3.3 3.2-5.8.6-.6 0-.6-5-1-7.6 3a2 1.2 70.7 0 0-.2 1l-.1 2.9c-.5 3.1-7.5 8.9-9.9 11.1-3.3 3 1.7 7.6 4.6 4.6"/><path fill="#fefefe" d="m19.8 10.6-10 11.7q-4-1.4-3.8 2.1a1 1-71.1 0 0 .4.9q1.3 1.2 3.3 1v.4C7 29.9 2 25.4 5.3 22.3c2.4-2.2 9.4-8 9.9-11.1q.2-1.4.1-2.9a2 1.2 70.7 0 1 .2-1q2.6-4 7.6-3 .6 0 0 .6-2.9 2.5-3.2 5.8"/><path fill="#cdcdcd" d="M9.8 26.8v-.6q.5-2 0-4l10-11.6c2.8 2.7 5.6.7 7.4-1.9.5-.7 1.3-.7 1.3.3-.3 4.7-2 9-7.3 8a2 2-61.5 0 0-2.1.6z"/><path fill="#a6a5a4" d="M9.8 22.3q.5 2 0 4-2 .2-3.4-1a1 1-71.1 0 1-.4-.9q0-3.4 3.8-2.1"/></svg>
